svg/emoji_u1f991.svg

<svg width="128" height="128" viewBox="0 0 128 128" fill="none" xmlns="http://www.w3.org/2000/svg">
<path d="M49.5698 28.22C49.1798 27.77 46.4698 30.75 44.2198 32.54C42.8598 33.61 32.0198 41.46 28.2598 46.05C24.4998 50.64 23.1998 58.99 26.5698 63.98C31.8298 71.77 38.6798 73.83 38.6798 73.83L54.1698 87.72C54.1698 87.72 58.7698 96.78 62.9898 100.01C65.7898 102.16 69.2898 104.94 75.2798 104.14C82.9798 103.11 88.5198 95.21 90.5798 92.13C93.2098 88.19 95.7398 83.12 99.3998 81.43C103.06 79.74 99.7798 74.48 96.6798 77.11C93.5798 79.74 80.8198 94.75 78.0998 95.41C75.3798 96.07 70.6898 96.07 68.2498 94.38C65.8098 92.69 63.1398 88.33 63.1398 85.98C63.1398 83.63 63.8298 80.9 66.4698 79.83C70.4098 78.23 72.6599 79.08 75.0098 77.67C77.1199 76.41 99.0398 51.67 99.0398 51.67C99.0398 51.67 103.26 58.71 108.43 58.43C112.05 58.23 113.12 38.91 113.12 38.91C113.12 38.91 113.05 31.28 111.52 28.21C110.16 25.46 106.25 18.11 100.26 15.92C92.8499 13.2 79.9898 15.36 79.9898 15.36C79.9898 15.36 70.5998 18.74 70.4198 20.43C70.2298 22.12 70.5098 24 73.2398 26.91C74.7398 28.52 77.5598 29.82 77.5598 29.82L54.6598 52.72C54.6598 52.72 49.6898 53.85 49.5898 57.22C49.5398 58.97 49.6798 60.97 48.7498 63.41C48.0598 65.21 42.1798 67.87 37.8598 65.43C33.3998 62.91 30.4498 60.13 31.0998 54.4C31.7498 48.67 57.0798 36.85 49.5698 28.22Z" fill="#D74338" style="fill:#D74338;fill:color(display-p3 0.8417 0.2634 0.2209);fill-opacity:1;"/>
<path d="M111.33 16.5801C109.83 15.0801 98.4702 18.0801 79.6102 27.4701C60.7502 36.8601 50.1502 50.4701 49.6702 56.5601C49.2002 62.5701 53.7102 67.9201 57.1802 70.9201C60.6502 73.9201 67.6002 79.5501 73.8902 78.1501C80.1802 76.7401 96.5002 61.1701 103.36 45.5801C109.54 31.5001 113.2 18.4601 111.33 16.5801Z" fill="#EE7FAD" style="fill:#EE7FAD;fill:color(display-p3 0.9333 0.4980 0.6784);fill-opacity:1;"/>
<path d="M111.33 16.5801C109.83 15.0801 98.4702 18.0801 79.6102 27.4701C60.7502 36.8601 50.1502 50.4701 49.6702 56.5601C49.2002 62.5701 53.7102 67.9201 57.1802 70.9201C60.6502 73.9201 67.6002 79.5501 73.8902 78.1501C80.1802 76.7401 96.5002 61.1701 103.36 45.5801C109.54 31.5001 113.2 18.4601 111.33 16.5801Z" fill="#F0695F" style="fill:#F0695F;fill:color(display-p3 0.9417 0.4117 0.3727);fill-opacity:1;"/>
<path d="M70.41 20.8C70.24 24.64 75.85 25.36 78.29 24.46C81.11 23.43 86.74 20.24 89.65 19.11C92.56 17.98 99.8 15.84 99.13 15.45C97.56 14.53 86.65 11.88 77.26 14.32C71.59 15.8 70.5 18.65 70.41 20.8Z" fill="#EE7FAC" style="fill:#EE7FAC;fill:color(display-p3 0.9333 0.4980 0.6745);fill-opacity:1;"/>
<path d="M70.41 20.8C70.24 24.64 75.85 25.36 78.29 24.46C81.11 23.43 86.74 20.24 89.65 19.11C92.56 17.98 99.8 15.84 99.13 15.45C97.56 14.53 86.65 11.88 77.26 14.32C71.59 15.8 70.5 18.65 70.41 20.8Z" fill="#F0695F" style="fill:#F0695F;fill:color(display-p3 0.9417 0.4117 0.3727);fill-opacity:1;"/>
<path d="M112.08 29.72C112.08 29.72 110.11 37.51 108.98 40.51C107.85 43.51 104.23 51.67 104.38 54.4C104.57 57.78 107.76 60.13 111.79 57.03C115.83 53.93 115.45 43.89 115.17 41.73C114.89 39.57 113.86 31.5 112.08 29.72Z" fill="#EE7FAC" style="fill:#EE7FAC;fill:color(display-p3 0.9333 0.4980 0.6745);fill-opacity:1;"/>
<path d="M112.08 29.72C112.08 29.72 110.11 37.51 108.98 40.51C107.85 43.51 104.23 51.67 104.38 54.4C104.57 57.78 107.76 60.13 111.79 57.03C115.83 53.93 115.45 43.89 115.17 41.73C114.89 39.57 113.86 31.5 112.08 29.72Z" fill="#F0695F" style="fill:#F0695F;fill:color(display-p3 0.9417 0.4117 0.3727);fill-opacity:1;"/>
<path d="M52.39 76.1799C49.67 73.2699 43.57 68.1099 43.57 68.1099C43.57 68.1099 38.97 75.1499 34.56 75.2399C30.15 75.3299 26.77 66.6999 23.49 62.3799C20.21 58.0599 15.23 57.0299 12.04 57.6899C8.85004 58.3499 4.44004 61.6299 6.03004 64.3499C7.88004 67.5099 12.13 63.0399 15.13 63.5999C18.13 64.1599 20.39 68.0099 22.17 71.1099C23.95 74.2099 26.83 77.3999 28.55 78.8099C31.83 81.4799 36.25 80.8699 36.25 80.8699C36.25 80.8699 31.35 88.6999 24.1 88.0999C16.17 87.4399 15.42 82.2799 15.98 79.9299C16.54 77.5799 20.86 76.7399 20.2 74.3899C19.54 72.0399 14.01 71.1499 11.1 76.2199C8.19004 81.2899 10.96 86.8699 14.71 89.9699C18.46 93.0699 25.17 93.9099 29.4 93.3499C33.36 92.8199 37.31 90.8799 37.66 91.1899C38.08 91.5699 35.88 97.0999 35.69 102.08C35.54 106.03 36.36 114.36 42.73 117.19C48.55 119.77 53.57 117.71 55.31 116.16C56.73 114.9 58.03 110.81 55.5 109.68C53.08 108.61 52.83 113.34 47.15 112.59C43.46 112.1 41.2 106.26 41.24 103.44C41.33 96.7799 47.62 93.4399 47.62 93.4399C47.62 93.4399 47.39 96.9099 49.36 100.15C51.72 104.03 57.1 106.49 59.45 107.99C61.05 109.01 65.41 111.09 65.74 114.75C66 117.66 62.82 119.59 64.71 121.79C66.4 123.76 71.33 119.54 71.7 115.5C72.07 111.46 69.12 107.43 64.71 104.33C60.3 101.23 54.2 100.58 53.64 94.4799C53.32 91.0299 61.43 85.4699 61.43 85.4699C61.43 85.4699 55.11 79.0899 52.39 76.1799Z" fill="#EE7FAC" style="fill:#EE7FAC;fill:color(display-p3 0.9333 0.4980 0.6745);fill-opacity:1;"/>
<path d="M52.39 76.1799C49.67 73.2699 43.57 68.1099 43.57 68.1099C43.57 68.1099 38.97 75.1499 34.56 75.2399C30.15 75.3299 26.77 66.6999 23.49 62.3799C20.21 58.0599 15.23 57.0299 12.04 57.6899C8.85004 58.3499 4.44004 61.6299 6.03004 64.3499C7.88004 67.5099 12.13 63.0399 15.13 63.5999C18.13 64.1599 20.39 68.0099 22.17 71.1099C23.95 74.2099 26.83 77.3999 28.55 78.8099C31.83 81.4799 36.25 80.8699 36.25 80.8699C36.25 80.8699 31.35 88.6999 24.1 88.0999C16.17 87.4399 15.42 82.2799 15.98 79.9299C16.54 77.5799 20.86 76.7399 20.2 74.3899C19.54 72.0399 14.01 71.1499 11.1 76.2199C8.19004 81.2899 10.96 86.8699 14.71 89.9699C18.46 93.0699 25.17 93.9099 29.4 93.3499C33.36 92.8199 37.31 90.8799 37.66 91.1899C38.08 91.5699 35.88 97.0999 35.69 102.08C35.54 106.03 36.36 114.36 42.73 117.19C48.55 119.77 53.57 117.71 55.31 116.16C56.73 114.9 58.03 110.81 55.5 109.68C53.08 108.61 52.83 113.34 47.15 112.59C43.46 112.1 41.2 106.26 41.24 103.44C41.33 96.7799 47.62 93.4399 47.62 93.4399C47.62 93.4399 47.39 96.9099 49.36 100.15C51.72 104.03 57.1 106.49 59.45 107.99C61.05 109.01 65.41 111.09 65.74 114.75C66 117.66 62.82 119.59 64.71 121.79C66.4 123.76 71.33 119.54 71.7 115.5C72.07 111.46 69.12 107.43 64.71 104.33C60.3 101.23 54.2 100.58 53.64 94.4799C53.32 91.0299 61.43 85.4699 61.43 85.4699C61.43 85.4699 55.11 79.0899 52.39 76.1799Z" fill="#F0695F" style="fill:#F0695F;fill:color(display-p3 0.9417 0.4117 0.3727);fill-opacity:1;"/>
<path d="M67.3101 93.63C67.3101 93.63 71.1901 96.2 74.7201 95.32C81.4801 93.63 85.3801 86.22 87.1101 83.78C90.0701 79.6 95.4101 72.99 101.09 70.73C107.47 68.2 113.29 69.51 116.76 71.2C120.23 72.89 124.17 76.74 122.77 78.05C121.36 79.36 116.83 79.71 112.96 81.15C108.78 82.7 107.48 85.25 104.47 84.06C102.69 83.36 102.41 81.71 99.6801 80.96C97.6201 80.4 93.9501 82.74 91.0501 86.22C87.8401 90.05 83.1401 96.12 77.3501 97.2C71.8101 98.23 68.0601 95.7 67.3101 93.63Z" fill="#EE7FAC" style="fill:#EE7FAC;fill:color(display-p3 0.9333 0.4980 0.6745);fill-opacity:1;"/>
<path d="M67.3101 93.63C67.3101 93.63 71.1901 96.2 74.7201 95.32C81.4801 93.63 85.3801 86.22 87.1101 83.78C90.0701 79.6 95.4101 72.99 101.09 70.73C107.47 68.2 113.29 69.51 116.76 71.2C120.23 72.89 124.17 76.74 122.77 78.05C121.36 79.36 116.83 79.71 112.96 81.15C108.78 82.7 107.48 85.25 104.47 84.06C102.69 83.36 102.41 81.71 99.6801 80.96C97.6201 80.4 93.9501 82.74 91.0501 86.22C87.8401 90.05 83.1401 96.12 77.3501 97.2C71.8101 98.23 68.0601 95.7 67.3101 93.63Z" fill="#F0695F" style="fill:#F0695F;fill:color(display-p3 0.9417 0.4117 0.3727);fill-opacity:1;"/>
<path d="M48.4402 15.17C47.7002 17.97 44.6902 21.74 44.8702 23.8C45.0602 25.86 48.9702 27.84 47.1202 30.09C42.7102 35.44 36.8402 40.56 34.5402 42.76C30.1402 46.99 28.8302 51.4 29.3002 56C29.8402 61.34 35.7802 64.18 35.5902 63.98C34.0902 62.38 31.3702 59.57 32.6802 56C34.1402 52.04 38.0302 47.93 46.1002 41.73C54.1702 35.53 60.2702 31.69 59.8002 20.71C59.3302 9.72997 54.8302 4.75997 52.0102 5.68997C48.7702 6.76997 49.8502 9.81997 48.4402 15.17Z" fill="#EE7FAC" style="fill:#EE7FAC;fill:color(display-p3 0.9333 0.4980 0.6745);fill-opacity:1;"/>
<path d="M48.4402 15.17C47.7002 17.97 44.6902 21.74 44.8702 23.8C45.0602 25.86 48.9702 27.84 47.1202 30.09C42.7102 35.44 36.8402 40.56 34.5402 42.76C30.1402 46.99 28.8302 51.4 29.3002 56C29.8402 61.34 35.7802 64.18 35.5902 63.98C34.0902 62.38 31.3702 59.57 32.6802 56C34.1402 52.04 38.0302 47.93 46.1002 41.73C54.1702 35.53 60.2702 31.69 59.8002 20.71C59.3302 9.72997 54.8302 4.75997 52.0102 5.68997C48.7702 6.76997 49.8502 9.81997 48.4402 15.17Z" fill="#F0695F" style="fill:#F0695F;fill:color(display-p3 0.9417 0.4117 0.3727);fill-opacity:1;"/>
<path d="M69.68 49.9901C71.0441 49.9901 72.15 48.8977 72.15 47.5501C72.15 46.2025 71.0441 45.1101 69.68 45.1101C68.3158 45.1101 67.21 46.2025 67.21 47.5501C67.21 48.8977 68.3158 49.9901 69.68 49.9901Z" fill="#FEA7A5" style="fill:#FEA7A5;fill:color(display-p3 0.9961 0.6549 0.6471);fill-opacity:1;"/>
<path d="M85.5199 51.8699C86.7128 51.8699 87.6799 50.8805 87.6799 49.66C87.6799 48.4394 86.7128 47.45 85.5199 47.45C84.3269 47.45 83.3599 48.4394 83.3599 49.66C83.3599 50.8805 84.3269 51.8699 85.5199 51.8699Z" fill="#FEA7A5" style="fill:#FEA7A5;fill:color(display-p3 0.9961 0.6549 0.6471);fill-opacity:1;"/>
<path d="M80.3499 40.05C81.4379 40.05 82.3199 39.1456 82.3199 38.03C82.3199 36.9144 81.4379 36.01 80.3499 36.01C79.2619 36.01 78.3799 36.9144 78.3799 38.03C78.3799 39.1456 79.2619 40.05 80.3499 40.05Z" fill="#FEA7A5" style="fill:#FEA7A5;fill:color(display-p3 0.9961 0.6549 0.6471);fill-opacity:1;"/>
<path d="M90.68 29.5299C91.768 29.5299 92.65 28.6076 92.65 27.4699C92.65 26.3322 91.768 25.4099 90.68 25.4099C89.592 25.4099 88.71 26.3322 88.71 27.4699C88.71 28.6076 89.592 29.5299 90.68 29.5299Z" fill="#FEA7A5" style="fill:#FEA7A5;fill:color(display-p3 0.9961 0.6549 0.6471);fill-opacity:1;"/>
<path d="M94.5301 37.1299C95.6181 37.1299 96.5001 36.2479 96.5001 35.1599C96.5001 34.0719 95.6181 33.1899 94.5301 33.1899C93.4421 33.1899 92.5601 34.0719 92.5601 35.1599C92.5601 36.2479 93.4421 37.1299 94.5301 37.1299Z" fill="#FEA7A5" style="fill:#FEA7A5;fill:color(display-p3 0.9961 0.6549 0.6471);fill-opacity:1;"/>
<path d="M104.52 31.41C105.531 31.41 106.35 30.5907 106.35 29.58C106.35 28.5693 105.531 27.75 104.52 27.75C103.509 27.75 102.69 28.5693 102.69 29.58C102.69 30.5907 103.509 31.41 104.52 31.41Z" fill="#FEA7A5" style="fill:#FEA7A5;fill:color(display-p3 0.9961 0.6549 0.6471);fill-opacity:1;"/>
<path d="M98.2023 45.7032C98.6418 44.7382 98.2322 43.6071 97.2873 43.1767C96.3425 42.7463 95.2202 43.1797 94.7807 44.1446C94.3412 45.1096 94.7508 46.2407 95.6957 46.6711C96.6405 47.1015 97.7628 46.6681 98.2023 45.7032Z" fill="#FEA7A5" style="fill:#FEA7A5;fill:color(display-p3 0.9961 0.6549 0.6471);fill-opacity:1;"/>
<path d="M66.56 64.2499C67.6977 64.2499 68.62 63.3276 68.62 62.1899C68.62 61.0522 67.6977 60.1299 66.56 60.1299C65.4223 60.1299 64.5 61.0522 64.5 62.1899C64.5 63.3276 65.4223 64.2499 66.56 64.2499Z" fill="#FEA7A5" style="fill:#FEA7A5;fill:color(display-p3 0.9961 0.6549 0.6471);fill-opacity:1;"/>
<path d="M78.52 63.79C79.6356 63.79 80.54 62.8229 80.54 61.63C80.54 60.437 79.6356 59.47 78.52 59.47C77.4044 59.47 76.5 60.437 76.5 61.63C76.5 62.8229 77.4044 63.79 78.52 63.79Z" fill="#FEA7A5" style="fill:#FEA7A5;fill:color(display-p3 0.9961 0.6549 0.6471);fill-opacity:1;"/>
<path d="M50.3198 68.29C50.7898 71.67 47.6898 74.48 44.8798 74.02C42.1898 73.57 40.8398 71.63 40.8398 68.86C40.8398 66.09 42.7898 64.17 45.5298 64.17C48.2798 64.16 49.9598 65.66 50.3198 68.29Z" fill="#2D2E31" style="fill:#2D2E31;fill:color(display-p3 0.1765 0.1804 0.1922);fill-opacity:1;"/>
<path d="M65.1501 82.3699C65.6201 85.7499 63.0101 88.3799 59.5201 87.8099C57.2201 87.4299 55.3901 85.4199 55.3901 82.6499C55.3901 79.8799 57.4301 78.1499 60.1801 78.1499C62.9201 78.1499 64.7801 79.7399 65.1501 82.3699Z" fill="#2D2E31" style="fill:#2D2E31;fill:color(display-p3 0.1765 0.1804 0.1922);fill-opacity:1;"/>
<path d="M52.5301 15.08C52.5301 15.08 54.6401 14.52 54.7401 12.55C54.8301 10.72 53.6601 9.59002 52.1601 9.64002C50.6601 9.69002 49.7201 11.14 49.8101 12.5C49.8901 13.67 50.8401 14.52 50.8401 14.52C50.8401 14.52 49.2501 14.24 48.5901 16.02C47.8401 18.04 49.4801 18.84 49.4801 18.84C49.4801 18.84 47.5601 18.51 46.7101 20.01C45.9401 21.38 46.0101 22.78 47.7001 23.9C48.8701 24.68 50.8101 23.57 51.2701 22.26C51.7901 20.76 50.5701 19.26 50.5701 19.26C50.5701 19.26 52.4601 19.75 53.1001 17.71C53.6501 15.92 52.5301 15.08 52.5301 15.08Z" fill="#D74338" style="fill:#D74338;fill:color(display-p3 0.8431 0.2627 0.2196);fill-opacity:1;"/>
<path d="M114.84 76.9301C114.84 76.9301 114.93 75.1501 117.19 74.9601C118.56 74.8501 119.86 75.5201 119.96 77.0201C120.05 78.5201 119.4 79.4601 117.99 79.7401C116.36 80.0701 115.27 79.2701 115.27 79.2701C115.27 79.2701 115.13 80.3601 113.58 80.9601C111.75 81.6601 110.58 80.4901 110.58 80.4901C110.58 80.4901 110.7 82.1801 109.45 82.8401C107.76 83.7301 106.12 83.3101 105.46 81.8501C104.7 80.1701 105.37 78.7501 106.87 78.1401C108.84 77.3401 109.92 78.8001 109.92 78.8001C109.92 78.8001 109.75 76.7601 111.84 76.0801C113.72 75.4701 114.84 76.9301 114.84 76.9301Z" fill="#D74338" style="fill:#D74338;fill:color(display-p3 0.8431 0.2627 0.2196);fill-opacity:1;"/>
</svg>

<?xml version="1.0" encoding="utf-8"?>
<!-- Generator: Adobe Illustrator 24.1.2, SVG Export Plug-In . SVG Version: 6.00 Build 0)  -->
<svg version="1.1" id="Layer_3" xmlns="http://www.w3.org/2000/svg" xmlns:xlink="http://www.w3.org/1999/xlink" x="0px" y="0px"
	 viewBox="0 0 128 128" style="enable-background:new 0 0 128 128;" xml:space="preserve">
<path style="fill:#A363AF;" d="M49.57,28.22c-0.39-0.45-3.1,2.53-5.35,4.32c-1.36,1.07-12.2,8.92-15.96,13.51
	s-5.06,12.94-1.69,17.93c5.26,7.79,12.11,9.85,12.11,9.85l15.49,13.89c0,0,4.6,9.06,8.82,12.29c2.8,2.15,6.3,4.93,12.29,4.13
	c7.7-1.03,13.24-8.93,15.3-12.01c2.63-3.94,5.16-9.01,8.82-10.7c3.66-1.69,0.38-6.95-2.72-4.32c-3.1,2.63-15.86,17.64-18.58,18.3
	c-2.72,0.66-7.41,0.66-9.85-1.03c-2.44-1.69-5.11-6.05-5.11-8.4c0-2.35,0.69-5.08,3.33-6.15c3.94-1.6,6.19-0.75,8.54-2.16
	c2.11-1.26,24.03-26,24.03-26s4.22,7.04,9.39,6.76c3.62-0.2,4.69-19.52,4.69-19.52s-0.07-7.63-1.6-10.7
	c-1.36-2.75-5.27-10.1-11.26-12.29c-7.41-2.72-20.27-0.56-20.27-0.56s-9.39,3.38-9.57,5.07c-0.19,1.69,0.09,3.57,2.82,6.48
	c1.5,1.61,4.32,2.91,4.32,2.91l-22.9,22.9c0,0-4.97,1.13-5.07,4.5c-0.05,1.75,0.09,3.75-0.84,6.19c-0.69,1.8-6.57,4.46-10.89,2.02
	c-4.46-2.52-7.41-5.3-6.76-11.03S57.08,36.85,49.57,28.22z"/>
<path style="fill:#EE7FAD;" d="M111.33,16.58c-1.5-1.5-12.86,1.5-31.72,10.89s-29.46,23-29.94,29.09
	c-0.47,6.01,4.04,11.36,7.51,14.36c3.47,3,10.42,8.63,16.71,7.23c6.29-1.41,22.61-16.98,29.47-32.57
	C109.54,31.5,113.2,18.46,111.33,16.58z"/>
<path style="fill:#EE7FAC;" d="M70.41,20.8c-0.17,3.84,5.44,4.56,7.88,3.66c2.82-1.03,8.45-4.22,11.36-5.35
	c2.91-1.13,10.15-3.27,9.48-3.66c-1.57-0.92-12.48-3.57-21.87-1.13C71.59,15.8,70.5,18.65,70.41,20.8z"/>
<path style="fill:#EE7FAC;" d="M112.08,29.72c0,0-1.97,7.79-3.1,10.79c-1.13,3-4.75,11.16-4.6,13.89c0.19,3.38,3.38,5.73,7.41,2.63
	c4.04-3.1,3.66-13.14,3.38-15.3C114.89,39.57,113.86,31.5,112.08,29.72z"/>
<path style="fill:#EE7FAC;" d="M52.39,76.18c-2.72-2.91-8.82-8.07-8.82-8.07s-4.6,7.04-9.01,7.13c-4.41,0.09-7.79-8.54-11.07-12.86
	s-8.26-5.35-11.45-4.69c-3.19,0.66-7.6,3.94-6.01,6.66c1.85,3.16,6.1-1.31,9.1-0.75c3,0.56,5.26,4.41,7.04,7.51
	c1.78,3.1,4.66,6.29,6.38,7.7c3.28,2.67,7.7,2.06,7.7,2.06s-4.9,7.83-12.15,7.23c-7.93-0.66-8.68-5.82-8.12-8.17
	s4.88-3.19,4.22-5.54c-0.66-2.35-6.19-3.24-9.1,1.83c-2.91,5.07-0.14,10.65,3.61,13.75c3.75,3.1,10.46,3.94,14.69,3.38
	c3.96-0.53,7.91-2.47,8.26-2.16c0.42,0.38-1.78,5.91-1.97,10.89c-0.15,3.95,0.67,12.28,7.04,15.11c5.82,2.58,10.84,0.52,12.58-1.03
	c1.42-1.26,2.72-5.35,0.19-6.48c-2.42-1.07-2.67,3.66-8.35,2.91c-3.69-0.49-5.95-6.33-5.91-9.15c0.09-6.66,6.38-10,6.38-10
	s-0.23,3.47,1.74,6.71c2.36,3.88,7.74,6.34,10.09,7.84c1.6,1.02,5.96,3.1,6.29,6.76c0.26,2.91-2.92,4.84-1.03,7.04
	c1.69,1.97,6.62-2.25,6.99-6.29s-2.58-8.07-6.99-11.17c-4.41-3.1-10.51-3.75-11.07-9.85c-0.32-3.45,7.79-9.01,7.79-9.01
	S55.11,79.09,52.39,76.18z"/>
<path style="fill:#EE7FAC;" d="M67.31,93.63c0,0,3.88,2.57,7.41,1.69c6.76-1.69,10.66-9.1,12.39-11.54
	c2.96-4.18,8.3-10.79,13.98-13.05c6.38-2.53,12.2-1.22,15.67,0.47c3.47,1.69,7.41,5.54,6.01,6.85c-1.41,1.31-5.94,1.66-9.81,3.1
	c-4.18,1.55-5.48,4.1-8.49,2.91c-1.78-0.7-2.06-2.35-4.79-3.1c-2.06-0.56-5.73,1.78-8.63,5.26c-3.21,3.83-7.91,9.9-13.7,10.98
	C71.81,98.23,68.06,95.7,67.31,93.63z"/>
<path style="fill:#EE7FAC;" d="M48.44,15.17c-0.74,2.8-3.75,6.57-3.57,8.63c0.19,2.06,4.1,4.04,2.25,6.29
	c-4.41,5.35-10.28,10.47-12.58,12.67C30.14,46.99,28.83,51.4,29.3,56c0.54,5.34,6.48,8.18,6.29,7.98c-1.5-1.6-4.22-4.41-2.91-7.98
	c1.46-3.96,5.35-8.07,13.42-14.27s14.17-10.04,13.7-21.02S54.83,4.76,52.01,5.69C48.77,6.77,49.85,9.82,48.44,15.17z"/>
<ellipse style="fill:#FEA7A5;" cx="69.68" cy="47.55" rx="2.47" ry="2.44"/>
<ellipse style="fill:#FEA7A5;" cx="85.52" cy="49.66" rx="2.16" ry="2.21"/>
<ellipse style="fill:#FEA7A5;" cx="80.35" cy="38.03" rx="1.97" ry="2.02"/>
<ellipse style="fill:#FEA7A5;" cx="90.68" cy="27.47" rx="1.97" ry="2.06"/>
<circle style="fill:#FEA7A5;" cx="94.53" cy="35.16" r="1.97"/>
<circle style="fill:#FEA7A5;" cx="104.52" cy="29.58" r="1.83"/>
<ellipse transform="matrix(0.4145 -0.91 0.91 0.4145 15.6151 114.1195)" style="fill:#FEA7A5;" cx="96.5" cy="44.92" rx="1.92" ry="1.88"/>
<circle style="fill:#FEA7A5;" cx="66.56" cy="62.19" r="2.06"/>
<ellipse style="fill:#FEA7A5;" cx="78.52" cy="61.63" rx="2.02" ry="2.16"/>
<path style="fill:#2D2E31;" d="M50.32,68.29c0.47,3.38-2.63,6.19-5.44,5.73c-2.69-0.45-4.04-2.39-4.04-5.16s1.95-4.69,4.69-4.69
	C48.28,64.16,49.96,65.66,50.32,68.29z"/>
<path style="fill:#2D2E31;" d="M65.15,82.37c0.47,3.38-2.14,6.01-5.63,5.44c-2.3-0.38-4.13-2.39-4.13-5.16s2.04-4.5,4.79-4.5
	C62.92,78.15,64.78,79.74,65.15,82.37z"/>
<path style="fill:#A363AF;" d="M52.53,15.08c0,0,2.11-0.56,2.21-2.53c0.09-1.83-1.08-2.96-2.58-2.91c-1.5,0.05-2.44,1.5-2.35,2.86
	c0.08,1.17,1.03,2.02,1.03,2.02s-1.59-0.28-2.25,1.5c-0.75,2.02,0.89,2.82,0.89,2.82s-1.92-0.33-2.77,1.17
	c-0.77,1.37-0.7,2.77,0.99,3.89c1.17,0.78,3.11-0.33,3.57-1.64c0.52-1.5-0.7-3-0.7-3s1.89,0.49,2.53-1.55
	C53.65,15.92,52.53,15.08,52.53,15.08z"/>
<path style="fill:#A363AF;" d="M114.84,76.93c0,0,0.09-1.78,2.35-1.97c1.37-0.11,2.67,0.56,2.77,2.06c0.09,1.5-0.56,2.44-1.97,2.72
	c-1.63,0.33-2.72-0.47-2.72-0.47s-0.14,1.09-1.69,1.69c-1.83,0.7-3-0.47-3-0.47s0.12,1.69-1.13,2.35c-1.69,0.89-3.33,0.47-3.99-0.99
	c-0.76-1.68-0.09-3.1,1.41-3.71c1.97-0.8,3.05,0.66,3.05,0.66s-0.17-2.04,1.92-2.72C113.72,75.47,114.84,76.93,114.84,76.93z"/>
</svg>
